X: 70
T: Allemande
%R: reel
B: Stewart "A Select Collection of Airs, Jigs, Marches and Reels", ca.1784, p.33 #70
F: http://imslp.org/wiki/A_Select_Collection_of_Airs,_Jigs,_Marches_and_Reels_%28Various%29
Z: 2017 John Chambers <jc:trillian.mit.edu>
M: 2/4
L: 1/16
K: D
f2 |\
egec d2f2 | egec d2A2 |\
B2A2B2c2 | dcde d2f2 |\
egec d2f2 | egec d2A2 |\
B2A2B2c2 | d6 :|
|: g2 |\
fafd fafd | gbgb d2zg |\
fafd fafd | edcB A2zg |\
fafd fafd | gbgb e2zg |\
fafd egec | d6 :|

%%sep 1 1 500
%%sep 1 1 500

